svg/credit-card.svg

<svg width="24" height="24" viewBox="0 0 24 24" fill="none" xmlns="http://www.w3.org/2000/svg">
<path d="M22 6C22 4.89543 21.1046 4 20 4H4C2.89543 4 2 4.89543 2 6V18C2 19.1046 2.89543 20 4 20H20C21.1046 20 22 19.1046 22 18V6ZM20 8H4L4 6L20 6V8ZM4 11H20V18L4 18L4 11Z" fill="#0D0D0D"/>
</svg>

<svg width="24" height="24" fill="none" xmlns="http://www.w3.org/2000/svg"><path d="M22 6a2 2 0 00-2-2H4a2 2 0 00-2 2v12a2 2 0 002 2h16a2 2 0 002-2V6zm-2 2H4V6h16v2zM4 11h16v7H4v-7z" fill="#0D0D0D"/></svg>
